assets/third-party/newtype-labs-logo.svg

<?xml version="1.0" encoding="UTF-8" standalone="no"?>
<!-- Created with Inkscape (http://www.inkscape.org/) -->

<svg
   xmlns:dc="http://purl.org/dc/elements/1.1/"
   xmlns:cc="http://creativecommons.org/ns#"
   xmlns:rdf="http://www.w3.org/1999/02/22-rdf-syntax-ns#"
   xmlns:svg="http://www.w3.org/2000/svg"
   xmlns="http://www.w3.org/2000/svg"
   xmlns:sodipodi="http://sodipodi.sourceforge.net/DTD/sodipodi-0.dtd"
   xmlns:inkscape="http://www.inkscape.org/namespaces/inkscape"
   width="100"
   height="88"
   version="1.1"
   viewBox="0 0 26.458 23.28304"
   id="svg1058"
   sodipodi:docname="newtype-labs-logo.svg"
   inkscape:version="0.92.4 (5da689c313, 2019-01-14)">
  <defs
     id="defs1062" />
  <sodipodi:namedview
     pagecolor="#ffffff"
     bordercolor="#666666"
     borderopacity="1"
     objecttolerance="10"
     gridtolerance="10"
     guidetolerance="10"
     inkscape:pageopacity="0"
     inkscape:pageshadow="2"
     inkscape:window-width="1920"
     inkscape:window-height="1027"
     id="namedview1060"
     showgrid="false"
     inkscape:zoom="4"
     inkscape:cx="15.555567"
     inkscape:cy="38.462874"
     inkscape:window-x="-8"
     inkscape:window-y="-8"
     inkscape:window-maximized="1"
     inkscape:current-layer="svg1058"
     fit-margin-top="0"
     fit-margin-left="0"
     fit-margin-right="0"
     fit-margin-bottom="0" />
  <metadata
     id="metadata1032">
    <rdf:RDF>
      <cc:Work
         rdf:about="">
        <dc:format>image/svg+xml</dc:format>
        <dc:type
           rdf:resource="http://purl.org/dc/dcmitype/StillImage" />
        <dc:title></dc:title>
      </cc:Work>
    </rdf:RDF>
  </metadata>
  <path
     id="path1118"
     d="M 13.229276,0.59261749 10.555177,4.8756906 13.229276,6.725212 15.903926,4.8756906 Z M 2.4662733,4.1182676 C -0.20217077,9.1808654 2.224375,12.490759 4.4324905,14.09027 3.2061207,14.094516 2.465047,14.247804 0.54629388,14.991912 4.2023958,15.04847 9.9638473,15.857088 11.868006,22.690546 12.071363,18.353032 10.934834,14.514013 8.2465781,12.405334 7.9658861,12.185156 6.0765296,11.161733 5.1486297,10.336733 4.0234542,9.3361965 2.9962609,8.3781318 2.4382004,6.6575066 2.3771597,6.4693169 2.0073384,5.2081855 2.4662733,4.1182676 Z m 21.5254567,0 c 0.458931,1.0899181 0.08911,2.3510493 0.02807,2.539239 -0.558061,1.7206252 -1.585254,2.6786899 -2.71043,3.6792264 -0.927899,0.825 -2.817257,1.848423 -3.097949,2.068601 -2.688256,2.108679 -3.825336,5.947698 -3.621979,10.285212 1.904159,-6.833458 7.666162,-7.642072 11.322264,-7.698634 -1.918752,-0.744108 -2.659827,-0.89738 -3.886197,-0.901642 2.208116,-1.599511 4.634661,-4.9094046 1.966221,-9.9720024 z M 9.9645412,5.5351332 C 7.5380051,7.2341347 5.1634101,7.649061 4.7996428,7.7138254 c 0,0 0.057595,0.02724 0.080366,0.035229 -0.3504205,0.052195 -0.4361442,0.092839 -0.803661,0.1651356 1.799237,0.3267625 3.740939,2.0200335 5.0993943,3.106756 1.0819279,-0.586342 1.6119549,-0.830655 2.2100679,-0.915404 0.418625,-0.05933 0.61045,0.2228 0.422197,0.575224 -0.340238,0.63693 -1.502896,1.181006 -1.8985123,1.389893 1.3469503,0.943622 2.5164033,6.158055 3.3197813,9.962646 0.803419,-3.804591 1.973486,-9.018981 3.320331,-9.962646 -0.395628,-0.208897 -1.558836,-0.752963 -1.899062,-1.389893 -0.188254,-0.352424 0.0035,-0.634555 0.422197,-0.575224 0.598028,0.08479 1.12814,0.329062 2.210069,0.915404 1.358455,-1.0867225 3.30005,-2.7799509 5.099394,-3.106756 -0.367517,-0.07222 -0.452691,-0.1129193 -0.80311,-0.1651356 0.02276,-0.00853 0.08037,-0.035229 0.08037,-0.035229 -0.363757,-0.064763 -2.738807,-0.4796803 -5.16545,-2.1786922 L 13.22928,7.8343746 Z"
     style="opacity:1;fill:none;fill-opacity:0.94117647;fill-rule:evenodd;stroke:#202d5f;stroke-width:0.56366372;stroke-linecap:round;stroke-linejoin:round;stroke-miterlimit:4;stroke-dasharray:none;stroke-dashoffset:0;stroke-opacity:0.94117647;paint-order:stroke fill markers"
     inkscape:connector-curvature="0" />
  <path
     style="opacity:1;fill:#b7830d;fill-opacity:1;fill-rule:evenodd;stroke:none;stroke-width:0.56366372;stroke-linecap:round;stroke-linejoin:round;stroke-miterlimit:4;stroke-dasharray:none;stroke-dashoffset:0;stroke-opacity:0.94117647;paint-order:stroke fill markers"
     d="M 2.4662733,4.1182676 C -0.20217077,9.1808654 2.224375,12.490759 4.4324905,14.09027 3.2061207,14.094516 2.465047,14.247804 0.54629388,14.991912 4.2023958,15.04847 9.9638473,15.857088 11.868006,22.690546 12.071363,18.353032 10.934834,14.514013 8.2465781,12.405334 7.9658861,12.185156 6.0765296,11.161733 5.1486297,10.336733 4.0234542,9.3361965 2.9962609,8.3781318 2.4382004,6.6575066 2.3771597,6.4693169 2.0073384,5.2081855 2.4662733,4.1182676 Z"
     id="path1132"
     inkscape:connector-curvature="0" />
  <path
     style="opacity:1;fill:#b7830d;fill-opacity:1;fill-rule:evenodd;stroke:none;stroke-width:0.56366372;stroke-linecap:round;stroke-linejoin:round;stroke-miterlimit:4;stroke-dasharray:none;stroke-dashoffset:0;stroke-opacity:0.94117647;paint-order:stroke fill markers"
     d="M 13.229276,0.59261749 10.555177,4.8756906 13.229276,6.725212 15.903926,4.8756906 Z"
     id="path1134"
     inkscape:connector-curvature="0" />
  <path
     style="opacity:1;fill:#b7830d;fill-opacity:1;fill-rule:evenodd;stroke:none;stroke-width:0.56366372;stroke-linecap:round;stroke-linejoin:round;stroke-miterlimit:4;stroke-dasharray:none;stroke-dashoffset:0;stroke-opacity:0.94117647;paint-order:stroke fill markers"
     d="m 23.99173,4.1182676 c 0.458931,1.0899181 0.08911,2.3510493 0.02807,2.539239 -0.558061,1.7206252 -1.585254,2.6786899 -2.71043,3.6792264 -0.927899,0.825 -2.817257,1.848423 -3.097949,2.068601 -2.688256,2.108679 -3.825336,5.947698 -3.621979,10.285212 1.904159,-6.833458 7.666162,-7.642072 11.322264,-7.698634 -1.918752,-0.744108 -2.659827,-0.89738 -3.886197,-0.901642 2.208116,-1.599511 4.634661,-4.9094046 1.966221,-9.9720024 z"
     id="path1130"
     inkscape:connector-curvature="0" />
  <path
     style="opacity:1;fill:#b7830d;fill-opacity:1;fill-rule:evenodd;stroke:none;stroke-width:0.56366372;stroke-linecap:round;stroke-linejoin:round;stroke-miterlimit:4;stroke-dasharray:none;stroke-dashoffset:0;stroke-opacity:0.94117647;paint-order:stroke fill markers"
     d="M 9.9645412,5.5351332 C 7.5380051,7.2341347 5.1634101,7.649061 4.7996428,7.7138254 c 0,0 0.057595,0.02724 0.080366,0.035229 -0.3504205,0.052195 -0.4361442,0.092839 -0.803661,0.1651356 1.799237,0.3267625 3.740939,2.0200335 5.0993943,3.106756 1.0819279,-0.586342 1.6119549,-0.830655 2.2100679,-0.915404 0.418625,-0.05933 0.61045,0.2228 0.422197,0.575224 -0.340238,0.63693 -1.502896,1.181006 -1.8985123,1.389893 1.3469503,0.943622 2.5164033,6.158055 3.3197813,9.962646 0.803419,-3.804591 1.973486,-9.018981 3.320331,-9.962646 -0.395628,-0.208897 -1.558836,-0.752963 -1.899062,-1.389893 -0.188254,-0.352424 0.0035,-0.634555 0.422197,-0.575224 0.598028,0.08479 1.12814,0.329062 2.210069,0.915404 1.358455,-1.0867225 3.30005,-2.7799509 5.099394,-3.106756 -0.367517,-0.07222 -0.452691,-0.1129193 -0.80311,-0.1651356 0.02276,-0.00853 0.08037,-0.035229 0.08037,-0.035229 -0.363757,-0.064763 -2.738807,-0.4796803 -5.16545,-2.1786922 L 13.22928,7.8343746 Z"
     id="rect1112"
     inkscape:connector-curvature="0" />
  <path
     style="opacity:1;fill:#f4ae00;fill-opacity:1;fill-rule:evenodd;stroke:none;stroke-width:0.56366372;stroke-linecap:round;stroke-linejoin:round;stroke-miterlimit:4;stroke-dasharray:none;stroke-dashoffset:0;stroke-opacity:0.94117647;paint-order:stroke fill markers"
     d="m 13.229276,0.83756923 -2.444562,3.93188407 0.220732,0.1557783 c 0.74755,0.1711677 1.577601,0.6465327 1.994842,1.3673247 l 0.228988,0.1755944 0.228988,-0.1755944 c 0.417231,-0.7208027 1.24728,-1.1961464 1.994841,-1.3673247 l 0.221283,-0.1557783 z"
     id="path1126"
     inkscape:connector-curvature="0" />
  <path
     style="opacity:1;fill:#f4ae00;fill-opacity:1;fill-rule:evenodd;stroke:none;stroke-width:0.56366372;stroke-linecap:round;stroke-linejoin:round;stroke-miterlimit:4;stroke-dasharray:none;stroke-dashoffset:0;stroke-opacity:0.94117647;paint-order:stroke fill markers"
     d="M 9.9645412,5.545592 C 8.5529323,6.536637 6.7375408,7.3762995 4.8381746,7.7248346 6.2308229,7.986416 8.1767073,9.4750419 9.4917019,10.571776 9.9312055,10.311696 10.849144,9.8123841 11.503606,9.7427943 c 0.232823,-0.019708 0.382769,0.036564 0.450271,0.1409157 0.07487,0.1157235 0.02404,0.365216 -0.0666,0.46183 0.102966,0.521129 -0.774121,1.107487 -1.435581,1.471361 1.268233,1.480633 2.475281,7.212741 2.777586,8.918985 0.302261,-1.706244 1.509902,-7.438352 2.778133,-8.918985 -0.661491,-0.363832 -1.539136,-0.950199 -1.43613,-1.471361 -0.09065,-0.09662 -0.141478,-0.3461065 -0.06659,-0.46183 0.0675,-0.1042824 0.217448,-0.160601 0.45027,-0.1409157 0.654462,0.06956 1.572952,0.5689017 2.012456,0.8289817 1.314993,-1.0968408 3.26022,-2.5854341 4.652976,-2.8469414 C 19.72101,7.3763423 17.905621,6.5366582 16.494011,5.545592 l -3.264735,3.2471214 z"
     id="path1124"
     inkscape:connector-curvature="0" />
  <path
     style="opacity:1;fill:#f4ae00;fill-opacity:1;fill-rule:evenodd;stroke:none;stroke-width:0.56366372;stroke-linecap:round;stroke-linejoin:round;stroke-miterlimit:4;stroke-dasharray:none;stroke-dashoffset:0;stroke-opacity:0.94117647;paint-order:stroke fill markers"
     d="M 2.4387506,6.6531028 C 1.4299274,10.04514 3.1300505,12.729255 5.6572483,14.267516 4.0630629,13.851246 2.391548,14.275116 1.4528897,14.693017 7.899508,14.617067 10.953532,18.046287 11.891126,21.77184 11.902576,17.813219 10.744268,14.360162 8.2465781,12.400931 7.9658861,12.180752 6.0764229,11.157987 5.1486297,10.33288 4.0234542,9.332344 2.9968113,8.3736216 2.4387506,6.6531028 Z"
     id="path1122"
     inkscape:connector-curvature="0" />
  <path
     style="opacity:1;fill:#f4ae00;fill-opacity:1;fill-rule:evenodd;stroke:none;stroke-width:0.56366372;stroke-linecap:round;stroke-linejoin:round;stroke-miterlimit:4;stroke-dasharray:none;stroke-dashoffset:0;stroke-opacity:0.94117647;paint-order:stroke fill markers"
     d="m 24.018701,6.6531028 c -0.55806,1.7206255 -1.584703,2.6792412 -2.709879,3.6797772 -0.927793,0.825107 -2.817257,1.847883 -3.097949,2.068051 -2.497691,1.959231 -3.655998,5.412288 -3.644547,9.370909 0.937593,-3.725553 3.991618,-7.154772 10.438237,-7.078823 -0.938661,-0.417831 -2.610174,-0.841771 -4.20436,-0.425501 2.527199,-1.538261 4.227322,-4.222376 3.218498,-7.6144132 z"
     id="rect1115"
     inkscape:connector-curvature="0" />
</svg>

<?xml version="1.0" encoding="UTF-8"?>
<!-- Created with Inkscape (http://www.inkscape.org/) -->
<svg width="100" height="88" version="1.1" viewBox="0 0 26.458 23.283" xmlns="http://www.w3.org/2000/svg">
 <path d="m13.229 0.59262-2.6741 4.2831 2.6741 1.8495 2.6746-1.8495zm-10.763 3.5257c-2.6684 5.0626-0.2419 8.3725 1.9662 9.972-1.2264 0.004246-1.9674 0.15753-3.8862 0.90164 3.6561 0.056558 9.4176 0.86518 11.322 7.6986 0.20336-4.3375-0.93317-8.1765-3.6214-10.285-0.28069-0.22018-2.17-1.2436-3.0979-2.0686-1.1252-1.0005-2.1524-1.9586-2.7104-3.6792-0.061041-0.18819-0.43086-1.4493 0.028073-2.5392zm21.525 0c0.45893 1.0899 0.08911 2.351 0.02807 2.5392-0.55806 1.7206-1.5853 2.6787-2.7104 3.6792-0.9279 0.825-2.8173 1.8484-3.0979 2.0686-2.6883 2.1087-3.8253 5.9477-3.622 10.285 1.9042-6.8335 7.6662-7.6421 11.322-7.6986-1.9188-0.74411-2.6598-0.89738-3.8862-0.90164 2.2081-1.5995 4.6347-4.9094 1.9662-9.972zm-14.027 1.4169c-2.4265 1.699-4.8011 2.1139-5.1649 2.1787 0 0 0.057595 0.02724 0.080366 0.035229-0.35042 0.052195-0.43614 0.092839-0.80366 0.16514 1.7992 0.32676 3.7409 2.02 5.0994 3.1068 1.0819-0.58634 1.612-0.83066 2.2101-0.9154 0.41862-0.05933 0.61045 0.2228 0.4222 0.57522-0.34024 0.63693-1.5029 1.181-1.8985 1.3899 1.347 0.94362 2.5164 6.1581 3.3198 9.9626 0.80342-3.8046 1.9735-9.019 3.3203-9.9626-0.39563-0.2089-1.5588-0.75296-1.8991-1.3899-0.18825-0.35242 0.0035-0.63456 0.4222-0.57522 0.59803 0.08479 1.1281 0.32906 2.2101 0.9154 1.3585-1.0867 3.3-2.78 5.0994-3.1068-0.36752-0.07222-0.45269-0.11292-0.80311-0.16514 0.02276-0.00853 0.08037-0.035229 0.08037-0.035229-0.36376-0.064763-2.7388-0.47968-5.1654-2.1787l-3.2647 2.2992z" fill="none" stroke="#202d5f" stroke-linecap="round" stroke-linejoin="round" stroke-opacity=".94118" stroke-width=".56366" style="paint-order:stroke fill markers"/>
 <g fill="#b7830d" fill-rule="evenodd">
  <path d="m2.4663 4.1183c-2.6684 5.0626-0.2419 8.3725 1.9662 9.972-1.2264 0.004246-1.9674 0.15753-3.8862 0.90164 3.6561 0.056558 9.4176 0.86518 11.322 7.6986 0.20336-4.3375-0.93317-8.1765-3.6214-10.285-0.28069-0.22018-2.17-1.2436-3.0979-2.0686-1.1252-1.0005-2.1524-1.9586-2.7104-3.6792-0.061041-0.18819-0.43086-1.4493 0.028073-2.5392z" style="paint-order:stroke fill markers"/>
  <path d="m13.229 0.59262-2.6741 4.2831 2.6741 1.8495 2.6746-1.8495z" style="paint-order:stroke fill markers"/>
  <path d="m23.992 4.1183c0.45893 1.0899 0.08911 2.351 0.02807 2.5392-0.55806 1.7206-1.5853 2.6787-2.7104 3.6792-0.9279 0.825-2.8173 1.8484-3.0979 2.0686-2.6883 2.1087-3.8253 5.9477-3.622 10.285 1.9042-6.8335 7.6662-7.6421 11.322-7.6986-1.9188-0.74411-2.6598-0.89738-3.8862-0.90164 2.2081-1.5995 4.6347-4.9094 1.9662-9.972z" style="paint-order:stroke fill markers"/>
  <path d="m9.9645 5.5351c-2.4265 1.699-4.8011 2.1139-5.1649 2.1787 0 0 0.057595 0.02724 0.080366 0.035229-0.35042 0.052195-0.43614 0.092839-0.80366 0.16514 1.7992 0.32676 3.7409 2.02 5.0994 3.1068 1.0819-0.58634 1.612-0.83066 2.2101-0.9154 0.41862-0.05933 0.61045 0.2228 0.4222 0.57522-0.34024 0.63693-1.5029 1.181-1.8985 1.3899 1.347 0.94362 2.5164 6.1581 3.3198 9.9626 0.80342-3.8046 1.9735-9.019 3.3203-9.9626-0.39563-0.2089-1.5588-0.75296-1.8991-1.3899-0.18825-0.35242 0.0035-0.63456 0.4222-0.57522 0.59803 0.08479 1.1281 0.32906 2.2101 0.9154 1.3585-1.0867 3.3-2.78 5.0994-3.1068-0.36752-0.07222-0.45269-0.11292-0.80311-0.16514 0.02276-0.00853 0.08037-0.035229 0.08037-0.035229-0.36376-0.064763-2.7388-0.47968-5.1654-2.1787l-3.2647 2.2992z" style="paint-order:stroke fill markers"/>
 </g>
 <g fill="#f4ae00" fill-rule="evenodd">
  <path d="m13.229 0.83757-2.4446 3.9319 0.22073 0.15578c0.74755 0.17117 1.5776 0.64653 1.9948 1.3673l0.22899 0.17559 0.22899-0.17559c0.41723-0.7208 1.2473-1.1961 1.9948-1.3673l0.22128-0.15578z" style="paint-order:stroke fill markers"/>
  <path d="m9.9645 5.5456c-1.4116 0.99104-3.227 1.8307-5.1264 2.1792 1.3926 0.26158 3.3385 1.7502 4.6535 2.8469 0.4395-0.26008 1.3574-0.75939 2.0119-0.82898 0.23282-0.019708 0.38277 0.036564 0.45027 0.14092 0.07487 0.11572 0.02404 0.36522-0.0666 0.46183 0.10297 0.52113-0.77412 1.1075-1.4356 1.4714 1.2682 1.4806 2.4753 7.2127 2.7776 8.919 0.30226-1.7062 1.5099-7.4384 2.7781-8.919-0.66149-0.36383-1.5391-0.9502-1.4361-1.4714-0.09065-0.09662-0.14148-0.34611-0.06659-0.46183 0.0675-0.10428 0.21745-0.1606 0.45027-0.14092 0.65446 0.06956 1.573 0.5689 2.0125 0.82898 1.315-1.0968 3.2602-2.5854 4.653-2.8469-1.8994-0.34849-3.7148-1.1882-5.1264-2.1792l-3.2647 3.2471z" style="paint-order:stroke fill markers"/>
  <path d="m2.4388 6.6531c-1.0088 3.392 0.6913 6.0762 3.2185 7.6144-1.5942-0.41627-3.2657 0.0076-4.2044 0.4255 6.4466-0.07595 9.5006 3.3533 10.438 7.0788 0.01145-3.9586-1.1469-7.4117-3.6445-9.3709-0.28069-0.22018-2.1702-1.2429-3.0979-2.0681-1.1252-1.0005-2.1518-1.9593-2.7099-3.6798z" style="paint-order:stroke fill markers"/>
  <path d="m24.019 6.6531c-0.55806 1.7206-1.5847 2.6792-2.7099 3.6798-0.92779 0.82511-2.8173 1.8479-3.0979 2.0681-2.4977 1.9592-3.656 5.4123-3.6445 9.3709 0.93759-3.7256 3.9916-7.1548 10.438-7.0788-0.93866-0.41783-2.6102-0.84177-4.2044-0.4255 2.5272-1.5383 4.2273-4.2224 3.2185-7.6144z" style="paint-order:stroke fill markers"/>
 </g>
</svg>
